public/assets/images/icons/yellow/folder-edit-empty.svg

<svg width="16" height="16" xmlns="http://www.w3.org/2000/svg" viewBox="0 0 54 54"><path d="M28 11V9.94a3 3 0 0 0-3-3H14a3 3 0 0 0-3 3V11H3v35h48V11Zm20 32H6V13.94h42Z" fill="#ffad00"/><path d="M32.71 17.39a3.29 3.29 0 0 0-4.41 1.14l-.54.9-.76 1.35-7.33 12.15.06 6 5.54-2.92 7.28-12.11.81-1.35.54-.9a3.06 3.06 0 0 0-1.19-4.26Zm-8.61 17.5-1 .54-1.78-1v-1.1l7.06-11.78 2.8 1.56Zm5.06-14.68.54-.9a1.64 1.64 0 0 1 2.21-.57 1.54 1.54 0 0 1 .59 2.13l-.54.9Z" fill="#ffad00"/></svg>

<svg width="16" height="16" xmlns="http://www.w3.org/2000/svg" viewBox="0 0 54 54"><defs><style>.a{fill:#ffad00;}</style></defs><path class="a" d="M28,11V9.94a3,3,0,0,0-3-3H14a3,3,0,0,0-3,3V11H3V46H51V11ZM48,43H6V13.94H48Z"/><path class="a" d="M32.71,17.39a3.29,3.29,0,0,0-4.41,1.14l-.54.9L27,20.78,19.67,32.93l.06,6,5.54-2.92L32.55,23.9l.81-1.35.54-.9A3.06,3.06,0,0,0,32.71,17.39ZM24.1,34.89l-1,.54-1.78-1v-1.1l7.06-11.78,2.8,1.56Zm5.06-14.68.54-.9a1.64,1.64,0,0,1,2.21-.57,1.54,1.54,0,0,1,.59,2.13l-.54.9Z"/></svg>
